X:74
M:6/8
L:1/8
Q:"Spiritoso  "3/8=100
K:D
!mf!D|(FAB) (AFD)|LF2 F F2 E|\
(FAB) (AFD)|L[E2C2A,2] [ECA,] [E2C2A,2] D|
[d2F2] [dF] ([dF]>[eA][fd])|[B2G2] [BG] [B2G2] [AF]|
([AF]>[BG][cE]) ([dF]>[cA][BG])|\
([AF]>[BG][cE]) ([dF][eA][fd])|\
([dB][BG][dB]) ([AF]FD)|LF2 F F2||
(FAB) (AFD)|L[E2C2A,2] [ECA,] [E2C2A,2] D|
([dB][BG][dB]) ([AF]FD)|LF2 F F2||

